TO SQUARE :SIZE
  REPEAT 4 [
    FORWARD :SIZE
    RIGHT 90
  ]
END

TO TRIANGLE :SIDE
  REPEAT 3 [
    FORWARD :SIDE
    RIGHT 120
  ]
END

SQUARE 100
TRIANGLE 50
UNKNOWN 999
SQUARE 10 20